X:2
T:Quand le Seigneur se montrera - E117
C:J. BerthIer
M:C
L:1/4
K:Eb
"Mib"GE/G/"Solm"B>"Dom"E|"Fam"AG"Sib"F2|"Mib"G"Dom"G/G/"Re"c"Solm"B|"Dom Fa"=A2"Sol"G2|
"Do"Gc/B/"Fam"AF|"Sib"B"Lab"A"Sol"G"Dom"E/E/|"Fam"A"Mib"G/G/ "Lab"F/E"Sib"D/|"Mib"E3z|]
